!!!!SEGMENT: pl-sa--549-a-ix-29--026_anonim--valc-ypsy-iantego.krn
!!!cenid: 18xx:480
!!!COM: Anonim
!!!COM-rismID: pe30004985
!!!CDT:
!!!CNT:
!!!OTL: Valc Ypsy Iantego
!!!PDT:
!!!AGN: Secular; Waltz
!!!SMS-siglum: PL-SA
!!!SMS-shelfmark: 549/A IX 29
!!!SMS-shelfwork: 026 W
!!!SMS-variant:
!!!SMS-altvar:
!!!NIFC-rismSourceID: 1001068890
!!!NIFC-islandoraID:
!!!URL-pdf-islandora:
!!!URL-scan: https://bc.bdsandomierz.pl/dlibra/publication/1441/edition/1409/content @EN{Scan on Cyfrowa Biblioteka Diecezjalna w Sandomierzu} @PL{Skany w portalu Cyfrowa Biblioteka Diecezjalna w Sandomierzu}
!!!ONB-nifc: Str. 20, s. 1-4
!!!AIN: 1 empty
!!!key:
**kern	**kern
*part1	*part1
*staff2	*staff1
*Iempty	*Ipiano
*	*I"Piano
*	*I'P-no
*clefF4	*clefG2
*k[f#c#g#]	*k[f#c#g#]
*A:	*A:
*M3/4	*M3/4
*>[A,A,B,B,C,C,D,D]	*>[A,A,B,B,C,C,D,D]
=1	=1
*>A	*>A
*2\right	*2\right
!	!LO:TX:a:Bi:t=Valc Ypsy Iantego:rj
2A 2AA/	2e 2c#/
8.AL 8.AA/	8.eL 8.c#/
16AJk 16AA/	16eJk 16c#/
=2	=2
2A 2AA/	2e 2c#/
4r	8ccc#\L
.	8bb\J
=3	=3
4r	8aa\L
.	8gg#\
4c# 4A\	8ff#\
.	8ee\
4c# 4A\	8dd\
.	8cc#\J
=4	=4
4r	8.ee\L
.	16dd#X\Jk
4d 4A\	4ddn\
4r	8.BL 8.G#/
.	16BJk 16G#/
=5	=5
4BB 4BBB/	4B 4G#/
4r	4r
!	!LO:N:vis=8
8.BBL 8.BBB/	8.BL 8.G#/
16BBJk 16BBB/	16BJk 16G#/
=6	=6
2BB 2BBB/	2B 2G#/
4r	8ddd\L
.	8ccc#\J
=7	=7
4r	8bb\L
.	8aa\
4d 4B\	8gg#\
.	8ff#\
4d 4B\	8ee\
.	8gg#\J
=8	=8
2c# 2A 2E\	2aa\
4r	4r
=9:|!|:	=9:|!|:
*>B	*>B
4E\	4ee 4e/
4d 4B 4G#\	8.eeL 8.e/
.	16eeJk 16e/
4d 4B 4G#\	4ee 4e/
!!LO:LB:g=original
=10	=10
4E\	8gg#\L
.	8aa\
4d 4B 4G#\	8bb\
.	8ccc#J 8aa\
4d 4B 4G#\	4gg# 4ee\
=11	=11
4E\	8aa\L
.	8ccc#\
4c# 4A\	8bb\
.	8aa\
4c# 4A\	8gg#\
.	8ff#\J
=12	=12
*rep	*
4E\	8ff#\L
.	8ee\
4c# 4A\	8dd\
.	8cc#\
4c# 4A\	8b\
.	8a\J
*Xrep	*
=13	=13
4D\	4ff# 4a\
4d 4A 4F#\	8.ff#L 8.a\
.	16ff#Jk 16a\
4d 4A 4F#\	4ff# 4a\
=14	=14
4E\	4ee\
4c# 4A\	4aa\
4c# 4A\	4cc#\
=15	=15
4E\	8b\L
.	8cc#\
4d 4B 4G#\	8dd\
.	8ee\
4d 4B 4G#\	8ff#\
.	8gg#\J
=16	=16
2c# 2A 2E\	2aa\
4r	4r
=17:|!|:	=17:|!|:
*>C	*>C
4E\	2ccc#\
4c# 4A\	.
4c# 4A\	4bb\
=18	=18
*rep	*
4E\	8aa\L
.	8gg#\
4c# 4A\	8bb\
.	8aa\
4c# 4A\	8gg#\
.	8ff#\J
*Xrep	*
=19	=19
*rep	*
4E\	2ee\
4c# 4A\	.
4c# 4A\	4dd\
*Xrep	*
=20	=20
*rep	*
4E\	4cc#\
4c# 4A\	2ee\
4c# 4A\	.
*Xrep	*
=21	=21
4E\	2eee 2ee\
4d 4B\	.
4d 4B\	4ddd 4dd\
!!LO:LB:g=original
=22	=22
4E\	4ddd 4dd\
4d 4B\	4ccc# 4cc#\
4d 4B\	4bb 4b\
=23	=23
*rep	*
4E\	2bb 2b\
4d 4B\	.
4d 4B\	4bb 4b\
*Xrep	*
=24	=24
*rep	*
4E\	2bb 2b\
4d 4B\	.
4d 4B\	4bb#X 4b#X\
*Xrep	*
=25	=25
4A\	2ccc# 2cc#\
4e 4c#\	.
4e 4c#\	4ccc# 4cc#\
=26	=26
4E\	4ddd 4dd\
4d 4B 4G#\	4ccc# 4cc#\
4d 4B 4G#\	4bb 4b\
=27	=27
4E\	2aa 2a\
4c# 4A\	.
4c# 4A\	4gg# 4g#\
=28	=28
4D\	2ff# 2f#/
4B 4F#\	.
4B 4F#\	4bb 4b\
=29	=29
4E\	2ee 2e/
4d 4B\	.
4d 4B\	4ee 4e/
=30	=30
*rep	*
4E\	4ee 4e/
4d 4B\	4ff# 4f#/
4d 4B\	4gg# 4g#\
*Xrep	*
=31	=31
4E\	2aa 2a\
4c# 4A\	.
4c# 4A\	4aa 4a\
=32	=32
2c# 2A 2E\	2aa 2a\
4r	4r
=33:|!|:	=33:|!|:
*>D	*>D
4E\	2bb 2b\
4d 4B 4G#\	.
4d 4B 4G#\	4bb 4dd\
=34	=34
*rep	*
.	8qqaa/
4E\	4gg#\
4d 4B 4G#\	4ff#\
4d 4B 4G#\	4ee\
*Xrep	*
=35	=35
4A\	2.ccc# 2.ee\
4e 4c#\	.
4e 4c#\	.
=36	=36
*rep	*
4A\	2aa\
4e 4c#\	.
4e 4c#\	4ee\
*Xrep	*
!!LO:LB:g=original
=37	=37
4E\	2bb 2dd\
4d 4B 4G#\	.
4d 4B 4G#\	4bb 4dd\
=38	=38
*rep	*
.	8qqaa/
4E\	4gg#\
4d 4B 4G#\	4ff#\
4d 4B 4G#\	4ee\
*Xrep	*
=39	=39
4A\	2.ccc# 2.ee\
4e 4c#\	.
4e 4c#\	.
=40	=40
4c# 4A\	8aa\L
.	8ee\
4r	8ff#\
.	8gg#\
4r	8aa\
.	8bb\J
=41	=41
4A\	2ccc#\
4e 4c#\	.
4e 4c#\	4ccc#\
=42	=42
4E\	4ddd 4dd\
4d 4B\	4ccc# 4cc#\
4d 4B\	4bb 4b\
=43	=43
4D\	2aa 2a\
4B 4F#\	.
4B 4F#\	4gg# 4g#\
=44	=44
*rep	*
4D\	2ff# 2f#\
4B 4F#\	.
4B 4F#\	4bb 4b\
*Xrep	*
=45	=45
*rep	*
4D\	2ee 2e/
4B 4F#\	.
4B 4F#\	4ee 4e/
*Xrep	*
=46	=46
*rep	*
4D\	4ee 4e/
4B 4F#\	4ff# 4f#\
4B 4F#\	4gg# 4g#\
*Xrep	*
=47	=47
4E\	2aa 2a\
4c# 4A\	.
4c# 4A\	4aa 4a\
=48	=48
2c# 2A 2E\	2aa 2cc#\
4r	4r
==;	==;
*-	*-
!!!system-decoration: {(s1,s2)}
!!!RDF**kern: > = above
!!!RDF**kern: < = below
!!!RDF**kern: | = vertical stroke
!!!RDF**kern: N = linked
!!!RDF**kern: i = editorial accidental
!!!RDF**kern: l = terminal long
!!!ENC: Marcin Jachim
!!!END: 2020-06-17
!!!EED: Wojciech Jakubiak-Danek
!!!EEV: 2022-01-04
